Newaita-dark/apps/32/nomacs.svg

<?xml version="1.0" encoding="UTF-8"?>
<svg xmlns="http://www.w3.org/2000/svg" xmlns:xlink="http://www.w3.org/1999/xlink" width="32pt" height="32pt" viewBox="0 0 32 32" version="1.1">
<defs>
<linearGradient id="linear0" gradientUnits="userSpaceOnUse" x1="254" y1="233.5" x2="254" y2="254.666672" gradientTransform="matrix(0.062506,0,0,0.062506,-0.00000381506,13.438785)">
<stop offset="0" style="stop-color:rgb(0%,0%,0%);stop-opacity:0.27451;"/>
<stop offset="1" style="stop-color:rgb(0%,0%,0%);stop-opacity:0;"/>
</linearGradient>
<radialGradient id="radial0" gradientUnits="userSpaceOnUse" cx="450.908936" cy="189.579361" fx="450.908936" fy="189.579361" r="21.166656" gradientTransform="matrix(0.00000017417,-0.0781325,-0.140638,-0.000000101539,46.50772,63.595333)">
<stop offset="0" style="stop-color:rgb(0%,0%,0%);stop-opacity:0.313725;"/>
<stop offset="0.222222" style="stop-color:rgb(0%,0%,0%);stop-opacity:0.27451;"/>
<stop offset="1" style="stop-color:rgb(0%,0%,0%);stop-opacity:0;"/>
</radialGradient>
<radialGradient id="radial1" gradientUnits="userSpaceOnUse" cx="450.908936" cy="189.579361" fx="450.908936" fy="189.579361" r="21.166656" gradientTransform="matrix(-0.00000017417,0.0781325,0.140638,0.000000101539,-14.754686,-7.527479)">
<stop offset="0" style="stop-color:rgb(0%,0%,0%);stop-opacity:0.313725;"/>
<stop offset="0.222222" style="stop-color:rgb(0%,0%,0%);stop-opacity:0.27451;"/>
<stop offset="1" style="stop-color:rgb(0%,0%,0%);stop-opacity:0;"/>
</radialGradient>
<radialGradient id="radial2" gradientUnits="userSpaceOnUse" cx="450.908936" cy="189.579361" fx="450.908936" fy="189.579361" r="21.166656" gradientTransform="matrix(-0.00000017417,-0.0781325,0.140638,-0.000000101539,-14.754686,63.595333)">
<stop offset="0" style="stop-color:rgb(0%,0%,0%);stop-opacity:0.313725;"/>
<stop offset="0.222222" style="stop-color:rgb(0%,0%,0%);stop-opacity:0.27451;"/>
<stop offset="1" style="stop-color:rgb(0%,0%,0%);stop-opacity:0;"/>
</radialGradient>
<radialGradient id="radial3" gradientUnits="userSpaceOnUse" cx="450.908936" cy="189.579361" fx="450.908936" fy="189.579361" r="21.166656" gradientTransform="matrix(0.00000017417,0.0781325,-0.140638,0.000000101539,46.507718,-7.527479)">
<stop offset="0" style="stop-color:rgb(0%,0%,0%);stop-opacity:0.313725;"/>
<stop offset="0.222222" style="stop-color:rgb(0%,0%,0%);stop-opacity:0.27451;"/>
<stop offset="1" style="stop-color:rgb(0%,0%,0%);stop-opacity:0;"/>
</radialGradient>
<linearGradient id="linear1" gradientUnits="userSpaceOnUse" x1="254" y1="233.5" x2="254" y2="-147.5" gradientTransform="matrix(0.062506,0,0,0.062506,0.0217606,13.438783)">
<stop offset="0" style="stop-color:rgb(69.019608%,74.509804%,77.254902%);stop-opacity:1;"/>
<stop offset="1" style="stop-color:rgb(81.176471%,84.705882%,86.27451%);stop-opacity:1;"/>
</linearGradient>
<linearGradient id="linear2" gradientUnits="userSpaceOnUse" x1="960" y1="975.118103" x2="960" y2="535.118103" >
<stop offset="0" style="stop-color:rgb(83.137255%,88.235294%,34.117647%);stop-opacity:1;"/>
<stop offset="1" style="stop-color:rgb(90.196078%,93.333333%,61.176471%);stop-opacity:1;"/>
</linearGradient>
<linearGradient id="linear3" gradientUnits="userSpaceOnUse" x1="241.916656" y1="16.541662" x2="266.083313" y2="16.541662" gradientTransform="matrix(1,0,0,1,-80.319992,158.858627)">
<stop offset="0" style="stop-color:rgb(48.627451%,70.196078%,25.882353%);stop-opacity:1;"/>
<stop offset="1" style="stop-color:rgb(61.176471%,80%,39.607843%);stop-opacity:1;"/>
</linearGradient>
<linearGradient id="linear4" gradientUnits="userSpaceOnUse" x1="241.916656" y1="16.541662" x2="266.083313" y2="16.541662" gradientTransform="matrix(1,0,0,1,-0.557675,-109.955101)">
<stop offset="0" style="stop-color:rgb(48.627451%,70.196078%,25.882353%);stop-opacity:1;"/>
<stop offset="1" style="stop-color:rgb(61.176471%,80%,39.607843%);stop-opacity:1;"/>
</linearGradient>
</defs>
<g id="surface1">
<path style=" stroke:none;fill-rule:nonzero;fill:url(#linear0);" d="M 11.578125 28.035156 L 20.175781 28.035156 L 20.175781 29.355469 L 11.578125 29.355469 Z M 11.578125 28.035156 "/>
<path style=" stroke:none;fill-rule:nonzero;fill:url(#radial0);" d="M 20.175781 28.035156 L 22.824219 28.035156 L 22.824219 26.710938 L 20.175781 26.710938 Z M 20.175781 28.035156 "/>
<path style=" stroke:none;fill-rule:nonzero;fill:url(#radial1);" d="M 11.578125 28.035156 L 8.929688 28.035156 L 8.929688 29.355469 L 11.578125 29.355469 Z M 11.578125 28.035156 "/>
<path style=" stroke:none;fill-rule:nonzero;fill:url(#radial2);" d="M 11.578125 28.035156 L 8.929688 28.035156 L 8.929688 26.710938 L 11.578125 26.710938 Z M 11.578125 28.035156 "/>
<path style=" stroke:none;fill-rule:nonzero;fill:url(#radial3);" d="M 20.175781 28.035156 L 22.824219 28.035156 L 22.824219 29.355469 L 20.175781 29.355469 Z M 20.175781 28.035156 "/>
<path style=" stroke:none;fill-rule:nonzero;fill:url(#linear1);" d="M 6.636719 4.878906 L 15.238281 17.449219 L 14.90625 25.386719 C 14.90625 26.050781 14.574219 26.710938 13.914062 26.710938 L 10.9375 26.710938 C 10.570312 26.710938 10.273438 26.992188 10.273438 27.34375 L 10.273438 27.402344 C 10.273438 27.753906 10.570312 28.035156 10.9375 28.035156 L 20.859375 28.035156 C 21.226562 28.035156 21.519531 27.753906 21.519531 27.402344 L 21.519531 27.34375 C 21.519531 26.992188 21.226562 26.710938 20.859375 26.710938 L 17.882812 26.710938 C 17.222656 26.710938 16.890625 26.050781 16.890625 25.386719 L 16.558594 17.449219 L 25.160156 4.878906 Z M 6.636719 4.878906 "/>
<path style="fill-rule:nonzero;fill:url(#linear2);stroke-width:11.338583;stroke-linecap:square;stroke-linejoin:round;stroke:rgb(12.941177%,12.941177%,12.941177%);stroke-opacity:1;stroke-miterlimit:4;" d="M 604.430501 535.224507 L 919.990934 975.025051 C 940.067758 955.184425 979.985208 955.184425 1000.062032 975.025051 L 1310.662308 535.224507 Z M 604.430501 535.224507 " transform="matrix(0.016538,0,0,0.016538,0,0)"/>
<path style=" stroke:none;fill-rule:nonzero;fill:rgb(25.882354%,25.882354%,25.882354%);fill-opacity:1;" d="M 26.179688 3.214844 L 16.230469 14.730469 L 16.101562 14.621094 C 19.480469 10.539062 22.910156 6.390625 25.800781 2.894531 Z M 26.179688 3.214844 "/>
<path style="fill-rule:nonzero;fill:url(#linear3);stroke-width:3;stroke-linecap:square;stroke-linejoin:round;stroke:rgb(12.941177%,12.941177%,12.941177%);stroke-opacity:1;stroke-miterlimit:4;" d="M 173.651088 159.525805 C 179.548416 159.519199 184.29213 164.265528 184.251009 170.122512 L 184.248924 180.676789 C 184.295874 186.52639 179.549545 191.270104 173.652217 191.27671 C 167.842961 191.275932 163.099247 186.529603 163.100024 180.720347 L 163.094726 170.077998 C 163.095503 164.268742 167.841832 159.525027 173.651088 159.525805 Z M 173.651088 159.525805 " transform="matrix(0.0477363,-0.0403515,0.0403515,0.0477363,0,13.438783)"/>
<path style="fill-rule:nonzero;fill:url(#linear4);stroke-width:3;stroke-linecap:square;stroke-linejoin:round;stroke:rgb(12.941177%,12.941177%,12.941177%);stroke-opacity:1;stroke-miterlimit:4;" d="M 253.439065 -109.277724 C 259.265432 -109.268109 264.01017 -104.542598 264.000555 -98.716232 L 264.024591 -88.097054 C 264.014976 -82.270687 259.289465 -77.525948 253.463098 -77.535563 C 247.579045 -77.521142 242.891993 -82.270689 242.877572 -88.154742 L 242.877573 -98.716234 C 242.887188 -104.5426 247.612698 -109.287339 253.439065 -109.277724 Z M 253.439065 -109.277724 " transform="matrix(0.0576978,0.0240408,-0.0240408,0.0576978,0,13.438783)"/>
<path style=" stroke:none;fill-rule:nonzero;fill:rgb(100%,100%,100%);fill-opacity:0.392157;" d="M 6.613281 4.800781 L 6.839844 5.128906 L 24.910156 5.128906 L 25.136719 4.800781 Z M 15.203125 17.679688 L 14.882812 25.308594 C 14.882812 25.96875 14.554688 26.628906 13.890625 26.628906 L 10.914062 26.628906 C 10.546875 26.628906 10.253906 26.910156 10.253906 27.261719 L 10.253906 27.320312 C 10.253906 27.367188 10.257812 27.414062 10.269531 27.457031 C 10.332031 27.171875 10.597656 26.960938 10.914062 26.960938 L 13.890625 26.960938 C 14.554688 26.960938 14.882812 26.300781 14.882812 25.636719 L 15.214844 17.699219 Z M 16.550781 17.679688 L 16.539062 17.699219 L 16.867188 25.636719 C 16.867188 26.300781 17.199219 26.960938 17.859375 26.960938 L 20.839844 26.960938 C 21.15625 26.960938 21.417969 27.171875 21.484375 27.457031 C 21.492188 27.414062 21.5 27.367188 21.5 27.320312 L 21.5 27.261719 C 21.5 26.910156 21.203125 26.628906 20.839844 26.628906 L 17.859375 26.628906 C 17.199219 26.628906 16.867188 25.96875 16.867188 25.308594 Z M 16.550781 17.679688 "/>
<path style=" stroke:none;fill-rule:nonzero;fill:rgb(0%,0%,0%);fill-opacity:0.235294;" d="M 6.613281 4.878906 L 15.207031 17.441406 L 15.214844 17.277344 L 6.734375 4.878906 Z M 25.019531 4.878906 L 16.539062 17.277344 L 16.542969 17.441406 L 25.136719 4.878906 Z M 10.257812 27.285156 C 10.253906 27.304688 10.253906 27.324219 10.253906 27.34375 L 10.253906 27.402344 C 10.253906 27.753906 10.546875 28.035156 10.914062 28.035156 L 20.839844 28.035156 C 21.203125 28.035156 21.5 27.753906 21.5 27.402344 L 21.5 27.34375 C 21.5 27.324219 21.5 27.304688 21.496094 27.285156 C 21.464844 27.609375 21.183594 27.859375 20.839844 27.859375 L 10.914062 27.859375 C 10.570312 27.859375 10.285156 27.609375 10.257812 27.285156 Z M 10.257812 27.285156 "/>
<path style=" stroke:none;fill-rule:nonzero;fill:rgb(12.941177%,12.941177%,12.941177%);fill-opacity:1;" d="M 6.636719 4.785156 C 6.601562 4.785156 6.570312 4.804688 6.554688 4.835938 C 6.539062 4.867188 6.539062 4.90625 6.558594 4.933594 L 15.140625 17.476562 L 14.8125 25.382812 C 14.8125 25.703125 14.730469 26.015625 14.578125 26.246094 C 14.429688 26.472656 14.214844 26.617188 13.914062 26.617188 L 10.9375 26.617188 C 10.523438 26.617188 10.179688 26.941406 10.179688 27.34375 L 10.179688 27.402344 C 10.179688 27.804688 10.523438 28.128906 10.9375 28.128906 L 20.859375 28.128906 C 21.273438 28.128906 21.613281 27.804688 21.613281 27.402344 L 21.613281 27.34375 C 21.613281 26.941406 21.273438 26.617188 20.859375 26.617188 L 17.882812 26.617188 C 17.582031 26.617188 17.367188 26.472656 17.214844 26.246094 C 17.066406 26.015625 16.984375 25.703125 16.984375 25.386719 L 16.65625 17.476562 L 25.238281 4.933594 C 25.257812 4.90625 25.257812 4.867188 25.242188 4.835938 C 25.226562 4.804688 25.195312 4.785156 25.160156 4.785156 Z M 6.816406 4.972656 L 24.980469 4.972656 L 16.480469 17.398438 C 16.472656 17.414062 16.464844 17.433594 16.464844 17.453125 L 16.796875 25.386719 C 16.796875 25.734375 16.882812 26.082031 17.0625 26.347656 C 17.238281 26.617188 17.519531 26.804688 17.882812 26.804688 L 20.859375 26.804688 C 21.179688 26.804688 21.425781 27.046875 21.425781 27.34375 L 21.425781 27.402344 C 21.425781 27.699219 21.179688 27.941406 20.859375 27.941406 L 10.9375 27.941406 C 10.617188 27.941406 10.371094 27.699219 10.371094 27.402344 L 10.371094 27.34375 C 10.371094 27.046875 10.617188 26.804688 10.9375 26.804688 L 13.914062 26.804688 C 14.277344 26.804688 14.558594 26.617188 14.734375 26.347656 C 14.914062 26.082031 15 25.734375 15 25.386719 L 15 25.390625 L 15.332031 17.453125 C 15.332031 17.433594 15.324219 17.414062 15.3125 17.398438 Z M 6.816406 4.972656 "/>
</g>
</svg>

<svg xmlns="http://www.w3.org/2000/svg" width="32pt" height="32pt" viewBox="0 0 32 32"><defs><linearGradient id="a" gradientUnits="userSpaceOnUse" x1="254" y1="233.5" x2="254" y2="254.667" gradientTransform="matrix(.0625 0 0 .0625 0 13.439)"><stop offset="0" stop-opacity=".275"/><stop offset="1" stop-opacity="0"/></linearGradient><radialGradient id="b" gradientUnits="userSpaceOnUse" cx="450.909" cy="189.579" fx="450.909" fy="189.579" r="21.167" gradientTransform="matrix(0 -.07813 -.14064 0 46.508 63.595)"><stop offset="0" stop-opacity=".314"/><stop offset=".222" stop-opacity=".275"/><stop offset="1" stop-opacity="0"/></radialGradient><radialGradient id="c" gradientUnits="userSpaceOnUse" cx="450.909" cy="189.579" fx="450.909" fy="189.579" r="21.167" gradientTransform="matrix(0 .07813 .14064 0 -14.755 -7.527)"><stop offset="0" stop-opacity=".314"/><stop offset=".222" stop-opacity=".275"/><stop offset="1" stop-opacity="0"/></radialGradient><radialGradient id="d" gradientUnits="userSpaceOnUse" cx="450.909" cy="189.579" fx="450.909" fy="189.579" r="21.167" gradientTransform="matrix(0 -.07813 .14064 0 -14.755 63.595)"><stop offset="0" stop-opacity=".314"/><stop offset=".222" stop-opacity=".275"/><stop offset="1" stop-opacity="0"/></radialGradient><radialGradient id="e" gradientUnits="userSpaceOnUse" cx="450.909" cy="189.579" fx="450.909" fy="189.579" r="21.167" gradientTransform="matrix(0 .07813 -.14064 0 46.508 -7.527)"><stop offset="0" stop-opacity=".314"/><stop offset=".222" stop-opacity=".275"/><stop offset="1" stop-opacity="0"/></radialGradient><linearGradient id="f" gradientUnits="userSpaceOnUse" x1="254" y1="233.5" x2="254" y2="-147.5" gradientTransform="matrix(.0625 0 0 .0625 .022 13.439)"><stop offset="0" stop-color="#b0bec5"/><stop offset="1" stop-color="#cfd8dc"/></linearGradient><linearGradient id="g" gradientUnits="userSpaceOnUse" x1="960" y1="975.118" x2="960" y2="535.118"><stop offset="0" stop-color="#d4e157"/><stop offset="1" stop-color="#e6ee9c"/></linearGradient><linearGradient id="h" gradientUnits="userSpaceOnUse" x1="241.917" y1="16.542" x2="266.083" y2="16.542" gradientTransform="translate(-80.32 158.859)"><stop offset="0" stop-color="#7cb342"/><stop offset="1" stop-color="#9ccc65"/></linearGradient><linearGradient id="i" gradientUnits="userSpaceOnUse" x1="241.917" y1="16.542" x2="266.083" y2="16.542" gradientTransform="translate(-.558 -109.955)"><stop offset="0" stop-color="#7cb342"/><stop offset="1" stop-color="#9ccc65"/></linearGradient></defs><path d="M11.578 28.035h8.598v1.32h-8.598zm0 0" fill="url(#a)"/><path d="M20.176 28.035h2.648v-1.324h-2.648zm0 0" fill="url(#b)"/><path d="M11.578 28.035H8.93v1.32h2.648zm0 0" fill="url(#c)"/><path d="M11.578 28.035H8.93v-1.324h2.648zm0 0" fill="url(#d)"/><path d="M20.176 28.035h2.648v1.32h-2.648zm0 0" fill="url(#e)"/><path d="M6.637 4.879l8.601 12.57-.332 7.938c0 .664-.332 1.324-.992 1.324h-2.976c-.368 0-.665.281-.665.633v.058c0 .352.297.633.665.633h9.921c.368 0 .66-.281.66-.633v-.058a.644.644 0 0 0-.66-.633h-2.976c-.66 0-.992-.66-.992-1.324l-.332-7.938L25.16 4.88zm0 0" fill="url(#f)"/><path d="M604.43 535.225l315.56 439.8c20.078-19.84 59.995-19.84 80.072 0l310.6-439.8zm0 0" transform="rotate(.891) scale(.01654)" fill="url(#g)" stroke-width="11.339" stroke-linecap="square" stroke-linejoin="round" stroke="#212121"/><path d="M26.18 3.215L16.23 14.73l-.128-.109C19.48 10.54 22.91 6.391 25.8 2.895zm0 0" fill="#424242"/><path d="M173.651 159.526c5.897-.007 10.641 4.74 10.6 10.597l-.002 10.554c.047 5.85-4.7 10.593-10.597 10.6-5.809-.001-10.553-4.747-10.552-10.557l-.005-10.642c0-5.81 4.747-10.553 10.556-10.552zm0 0" transform="matrix(.04774 -.04035 .04035 .04774 0 13.439)" fill="url(#h)" stroke-width="3" stroke-linecap="square" stroke-linejoin="round" stroke="#212121"/><path d="M253.44-109.278c5.825.01 10.57 4.735 10.56 10.562l.025 10.619c-.01 5.826-4.736 10.571-10.562 10.561-5.884.015-10.571-4.735-10.585-10.619v-10.561c.01-5.827 4.735-10.571 10.561-10.562zm0 0" transform="matrix(.0577 .02404 -.02404 .0577 0 13.439)" fill="url(#i)" stroke-width="3" stroke-linecap="square" stroke-linejoin="round" stroke="#212121"/><path d="M6.613 4.8l.227.329h18.07l.227-.328zm8.59 12.88l-.32 7.629c0 .66-.328 1.32-.992 1.32h-2.977a.644.644 0 0 0-.66.633v.058c0 .047.004.094.016.137a.65.65 0 0 1 .644-.496h2.977c.664 0 .992-.66.992-1.324l.332-7.938zm1.348 0l-.012.02.328 7.937c0 .664.332 1.324.992 1.324h2.98c.317 0 .579.21.645.496a.77.77 0 0 0 .016-.137v-.058a.646.646 0 0 0-.66-.633h-2.98c-.66 0-.993-.66-.993-1.32zm0 0" fill="#fff" fill-opacity=".392"/><path d="M6.613 4.879l8.594 12.562.008-.164L6.735 4.88zm18.407 0l-8.48 12.398.003.164L25.137 4.88zM10.258 27.285c-.004.02-.004.04-.004.059v.058c0 .352.293.633.66.633h9.926c.363 0 .66-.281.66-.633v-.058c0-.02 0-.04-.004-.059a.648.648 0 0 1-.656.574h-9.926c-.344 0-.629-.25-.656-.574zm0 0" fill-opacity=".235"/><path d="M6.637 4.785a.091.091 0 0 0-.082.05.097.097 0 0 0 .004.099l8.582 12.543-.329 7.906c0 .32-.082.633-.234.863a.76.76 0 0 1-.664.371h-2.976c-.415 0-.758.324-.758.727v.058c0 .403.343.727.758.727h9.921c.414 0 .754-.324.754-.727v-.058c0-.403-.34-.727-.754-.727h-2.976c-.301 0-.516-.144-.668-.37a1.622 1.622 0 0 1-.23-.86l-.329-7.91 8.582-12.543a.097.097 0 0 0 .004-.098.091.091 0 0 0-.082-.05zm.18.188H24.98l-8.5 12.425a.127.127 0 0 0-.015.055l.332 7.934c0 .347.086.695.265.96a.96.96 0 0 0 .82.458h2.977a.55.55 0 0 1 .567.539v.058a.55.55 0 0 1-.567.54h-9.922a.55.55 0 0 1-.566-.54v-.058a.55.55 0 0 1 .566-.54h2.977a.96.96 0 0 0 .82-.456c.18-.266.266-.614.266-.961v.004l.332-7.938c0-.02-.008-.039-.02-.055zm0 0" fill="#212121"/></svg>
